;START_OF_HEADER
;HEADER_VERSION:0.1
;FLAVOR:Griffin
;GENERATOR.NAME:Cura_SteamEngine
;GENERATOR.VERSION:4.9.1
;GENERATOR.BUILD_DATE:2021-05-11
;TARGET_MACHINE.NAME:Ultimaker 3
;EXTRUDER_TRAIN.0.INITIAL_TEMPERATURE:205
;EXTRUDER_TRAIN.0.MATERIAL.VOLUME_USED:2642
;EXTRUDER_TRAIN.0.MATERIAL.GUID:506c9f0d-e3aa-4bd4-b2d2-23e2425b1aa9
;EXTRUDER_TRAIN.0.NOZZLE.DIAMETER:0.4
;EXTRUDER_TRAIN.0.NOZZLE.NAME:AA 0.4
;BUILD_PLATE.TYPE:glass
;BUILD_PLATE.INITIAL_TEMPERATURE:60
;PRINT.TIME:2268
;PRINT.GROUPS:1
;PRINT.SIZE.MIN.X:9
;PRINT.SIZE.MIN.Y:6
;PRINT.SIZE.MIN.Z:0.27
;PRINT.SIZE.MAX.X:150.975
;PRINT.SIZE.MAX.Y:141.93
;PRINT.SIZE.MAX.Z:2.27
;END_OF_HEADER
;Generated with Cura_SteamEngine 4.9.1
T0
M82 ;absolute extrusion mode

G92 E0
M109 S205
G0 F15000 X9 Y6 Z2
G280
G1 F1500 E-6.5
;LAYER_COUNT:10
;LAYER:0
M107
M204 S625
M205 X6 Y6
G1 F600 Z2.27
G0 F4285.7 X86.484 Y78.673 Z2.27
M204 S500
M205 X5 Y5
;TYPE:SKIRT
G1 F600 Z0.27
G1 F1500 E0
G1 F1200 X87.718 Y77.439 E0.03102
G1 X88.272 Y76.941 E0.04426
G1 X88.643 Y76.663 E0.0525
G1 X90.068 Y75.665 E0.08343
G1 X90.699 Y75.271 E0.09665
G1 X91.11 Y75.062 E0.10485
G1 X92.692 Y74.323 E0.13589
G1 X93.382 Y74.045 E0.14911
G1 X93.835 Y73.907 E0.15753
G1 X95.518 Y73.457 E0.1885
G1 X96.246 Y73.304 E0.20172
G1 X96.704 Y73.248 E0.20992
G1 X98.442 Y73.096 E0.24094
G1 X99.046 Y73.07 E0.25168
G1 X114.045 Y73.07 E0.5183
G1 X114.788 Y73.11 E0.53153
G1 X115.523 Y73.229 E0.54477
G1 X116.241 Y73.427 E0.55801
G1 X116.539 Y73.545 E0.5637
G1 X117.121 Y73.342 E0.57466
G1 X117.846 Y73.174 E0.58789
G1 X118.585 Y73.085 E0.60112
G1 X119.045 Y73.07 E0.6093
G1 X134.43 Y73.07 E0.88279
G1 X135.173 Y73.11 E0.89601
G1 X135.605 Y73.18 E0.90379
G1 X136.385 Y73.248 E0.91771
G1 X137.121 Y73.353 E0.93092
G1 X137.572 Y73.457 E0.93915
G1 X139.255 Y73.907 E0.97012
G1 X139.963 Y74.138 E0.98336
G1 X140.398 Y74.323 E0.99176
G1 X141.98 Y75.062 E1.0228
G1 X142.636 Y75.413 E1.03602
G1 X143.022 Y75.665 E1.04422
G1 X144.447 Y76.663 E1.07514
G1 X145.033 Y77.122 E1.08838
G1 X145.372 Y77.439 E1.09663
G1 X146.606 Y78.673 E1.12765
G1 X147.104 Y79.227 E1.14089
G1 X147.382 Y79.598 E1.14913
G1 X148.38 Y81.023 E1.18006
G1 X148.774 Y81.654 E1.19328
G1 X148.983 Y82.065 E1.20148
G1 X149.721 Y83.645 E1.23247
G1 X149.999 Y84.336 E1.24571
G1 X150.136 Y84.786 E1.25408
G1 X150.587 Y86.471 E1.28508
G1 X150.741 Y87.2 E1.29833
G1 X150.797 Y87.659 E1.30655
G1 X150.949 Y89.395 E1.33752
G1 X150.975 Y89.999 E1.34827
G1 X150.975 Y105 E1.61493
G1 X150.935 Y105.743 E1.62816
G1 X150.816 Y106.478 E1.64139
G1 X150.618 Y107.196 E1.65463
G1 X150.5 Y107.494 E1.66033
G1 X150.703 Y108.076 E1.67128
G1 X150.871 Y108.801 E1.68451
G1 X150.96 Y109.54 E1.69775
G1 X150.975 Y110 E1.70593
G1 X150.975 Y125.385 E1.97941
G1 X150.935 Y126.128 E1.99264
G1 X150.865 Y126.56 E2.00042
G1 X150.797 Y127.34 E2.01433
G1 X150.692 Y128.076 E2.02755
G1 X150.588 Y128.528 E2.03579
G1 X150.138 Y130.21 E2.06675
G1 X149.907 Y130.918 E2.07998
G1 X149.722 Y131.35 E2.08834
G1 X148.983 Y132.933 E2.11939
G1 X148.633 Y133.59 E2.13262
G1 X148.38 Y133.977 E2.14084
G1 X147.382 Y135.402 E2.17177
G1 X146.923 Y135.988 E2.185
G1 X146.606 Y136.327 E2.19325
G1 X145.372 Y137.561 E2.22427
G1 X144.818 Y138.059 E2.23751
G1 X144.447 Y138.337 E2.24575
G1 X143.022 Y139.335 E2.27668
G1 X142.391 Y139.729 E2.2899
G1 X141.98 Y139.938 E2.2981
G1 X140.398 Y140.677 E2.32914
G1 X139.708 Y140.955 E2.34236
G1 X139.255 Y141.093 E2.35078
G1 X137.572 Y141.543 E2.38175
G1 X136.844 Y141.696 E2.39497
G1 X136.386 Y141.752 E2.40317
G1 X134.648 Y141.904 E2.43419
G1 X134.044 Y141.93 E2.44493
G1 X119.045 Y141.93 E2.71155
G1 X118.302 Y141.89 E2.72478
G1 X117.567 Y141.771 E2.73802
G1 X116.849 Y141.573 E2.75126
G1 X116.551 Y141.455 E2.75695
G1 X115.969 Y141.658 E2.76791
G1 X115.244 Y141.826 E2.78114
G1 X114.505 Y141.915 E2.79437
G1 X114.045 Y141.93 E2.80255
G1 X98.66 Y141.93 E3.07604
G1 X97.917 Y141.89 E3.08926
G1 X97.485 Y141.82 E3.09704
G1 X96.705 Y141.752 E3.11096
G1 X95.969 Y141.647 E3.12418
G1 X95.518 Y141.543 E3.1324
G1 X93.835 Y141.093 E3.16337
G1 X93.127 Y140.862 E3.17661
G1 X92.692 Y140.677 E3.18501
G1 X91.11 Y139.938 E3.21605
G1 X90.454 Y139.587 E3.22928
G1 X90.068 Y139.335 E3.23747
G1 X88.643 Y138.337 E3.2684
G1 X88.057 Y137.878 E3.28163
G1 X87.718 Y137.561 E3.28988
G1 X86.484 Y136.327 E3.3209
G1 X85.986 Y135.773 E3.33414
G1 X85.708 Y135.402 E3.34238
G1 X84.71 Y133.977 E3.37331
G1 X84.316 Y133.346 E3.38653
G1 X84.107 Y132.933 E3.39476
G1 X83.368 Y131.35 E3.42581
G1 X83.089 Y130.66 E3.43904
G1 X82.952 Y130.21 E3.4474
G1 X82.502 Y128.528 E3.47836
G1 X82.349 Y127.8 E3.49158
G1 X82.293 Y127.341 E3.4998
G1 X82.141 Y125.605 E3.53078
G1 X82.115 Y125.001 E3.54152
G1 X82.115 Y110 E3.80818
G1 X82.155 Y109.257 E3.82141
G1 X82.274 Y108.522 E3.83464
G1 X82.472 Y107.804 E3.84788
G1 X82.59 Y107.506 E3.85358
G1 X82.387 Y106.924 E3.86454
G1 X82.219 Y106.199 E3.87777
G1 X82.13 Y105.46 E3.891
G1 X82.115 Y105 E3.89918
G1 X82.115 Y89.615 E4.17266
G1 X82.155 Y88.872 E4.18589
G1 X82.225 Y88.44 E4.19367
G1 X82.293 Y87.66 E4.20759
G1 X82.398 Y86.924 E4.2208
G1 X82.502 Y86.472 E4.22905
G1 X82.952 Y84.79 E4.26
G1 X83.183 Y84.082 E4.27323
G1 X83.368 Y83.65 E4.28159
G1 X84.107 Y82.067 E4.31264
G1 X84.457 Y81.41 E4.32588
G1 X84.71 Y81.023 E4.33409
G1 X85.708 Y79.598 E4.36502
G1 X86.167 Y79.012 E4.37825
G1 X86.484 Y78.673 E4.3865
M204 S625
M205 X6 Y6
G0 F4285.7 X86.781 Y78.97
M204 S500
M205 X5 Y5
G1 F1200 X88.015 Y77.736 E4.41752
G1 X88.552 Y77.255 E4.43034
G1 X88.884 Y77.007 E4.4377
G1 X90.309 Y76.009 E4.46863
G1 X90.921 Y75.628 E4.48144
G1 X91.288 Y75.443 E4.48875
G1 X92.87 Y74.704 E4.51979
G1 X93.539 Y74.435 E4.53261
G1 X93.943 Y74.313 E4.54011
G1 X95.626 Y73.863 E4.57108
G1 X96.333 Y73.715 E4.58392
G1 X96.741 Y73.667 E4.59122
G1 X98.479 Y73.515 E4.62223
G1 X99.046 Y73.49 E4.63232
G1 X114.045 Y73.49 E4.89894
G1 X114.765 Y73.53 E4.91176
G1 X115.477 Y73.649 E4.92459
G1 X116.171 Y73.847 E4.93742
G1 X116.544 Y74 E4.94459
G1 X116.805 Y73.887 E4.94964
G1 X117.495 Y73.677 E4.96246
G1 X118.204 Y73.545 E4.97528
G1 X119.045 Y73.49 E4.99027
G1 X134.43 Y73.49 E5.26375
G1 X135.15 Y73.53 E5.27657
G1 X135.556 Y73.598 E5.28389
G1 X136.348 Y73.667 E5.29802
G1 X137.062 Y73.769 E5.31084
G1 X137.464 Y73.863 E5.31818
G1 X139.147 Y74.313 E5.34914
G1 X139.832 Y74.538 E5.36196
G1 X140.22 Y74.704 E5.36946
G1 X141.802 Y75.443 E5.4005
G1 X142.438 Y75.784 E5.41333
G1 X142.781 Y76.009 E5.42062
G1 X144.206 Y77.007 E5.45155
G1 X144.774 Y77.453 E5.46438
G1 X145.075 Y77.736 E5.47173
G1 X146.309 Y78.97 E5.50275
G1 X146.79 Y79.507 E5.51556
G1 X147.038 Y79.839 E5.52293
G1 X148.036 Y81.264 E5.55386
G1 X148.417 Y81.876 E5.56667
G1 X148.602 Y82.243 E5.57398
G1 X149.34 Y83.823 E5.60498
G1 X149.609 Y84.492 E5.61779
G1 X149.731 Y84.895 E5.62528
G1 X150.182 Y86.58 E5.65628
G1 X150.329 Y87.286 E5.6691
G1 X150.378 Y87.695 E5.67643
G1 X150.53 Y89.431 E5.7074
G1 X150.555 Y89.999 E5.71751
G1 X150.555 Y105 E5.98417
G1 X150.515 Y105.72 E5.99699
G1 X150.396 Y106.432 E6.00982
G1 X150.198 Y107.126 E6.02265
G1 X150.045 Y107.499 E6.02981
G1 X150.158 Y107.76 E6.03487
G1 X150.368 Y108.45 E6.04769
G1 X150.5 Y109.159 E6.06051
G1 X150.555 Y110 E6.07549
G1 X150.555 Y125.385 E6.34897
G1 X150.515 Y126.105 E6.36179
G1 X150.447 Y126.511 E6.36911
G1 X150.378 Y127.303 E6.38324
G1 X150.276 Y128.017 E6.39606
G1 X150.182 Y128.42 E6.40342
G1 X149.732 Y130.102 E6.43437
G1 X149.507 Y130.787 E6.44719
G1 X149.342 Y131.173 E6.45465
G1 X148.603 Y132.756 E6.4857
G1 X148.262 Y133.392 E6.49853
G1 X148.036 Y133.736 E6.50585
G1 X147.038 Y135.161 E6.53677
G1 X146.592 Y135.729 E6.54961
G1 X146.309 Y136.03 E6.55695
G1 X145.075 Y137.264 E6.58798
G1 X144.538 Y137.745 E6.60079
G1 X144.206 Y137.993 E6.60816
G1 X142.781 Y138.991 E6.63908
G1 X142.169 Y139.372 E6.6519
G1 X141.802 Y139.557 E6.6592
G1 X140.22 Y140.296 E6.69024
G1 X139.551 Y140.565 E6.70306
G1 X139.147 Y140.687 E6.71056
G1 X137.464 Y141.137 E6.74153
G1 X136.757 Y141.285 E6.75437
G1 X136.349 Y141.333 E6.76167
G1 X134.611 Y141.485 E6.79268
G1 X134.044 Y141.51 E6.80277
G1 X119.045 Y141.51 E7.0694
G1 X118.325 Y141.47 E7.08221
G1 X117.613 Y141.351 E7.09505
G1 X116.919 Y141.153 E7.10787
G1 X116.546 Y141 E7.11504
G1 X116.285 Y141.113 E7.1201
G1 X115.595 Y141.323 E7.13292
G1 X114.886 Y141.455 E7.14574
G1 X114.045 Y141.51 E7.16072
G1 X98.66 Y141.51 E7.4342
G1 X97.94 Y141.47 E7.44702
G1 X97.534 Y141.402 E7.45434
G1 X96.742 Y141.333 E7.46847
G1 X96.028 Y141.231 E7.48129
G1 X95.626 Y141.137 E7.48863
G1 X93.943 Y140.687 E7.5196
G1 X93.258 Y140.462 E7.53241
G1 X92.87 Y140.296 E7.53992
G1 X91.288 Y139.557 E7.57095
G1 X90.652 Y139.216 E7.58378
G1 X90.309 Y138.991 E7.59107
G1 X88.884 Y137.993 E7.622
G1 X88.316 Y137.547 E7.63484
G1 X88.015 Y137.264 E7.64218
G1 X86.781 Y136.03 E7.6732
G1 X86.3 Y135.493 E7.68602
G1 X86.052 Y135.161 E7.69338
G1 X85.054 Y133.736 E7.72431
G1 X84.673 Y133.124 E7.73712
G1 X84.487 Y132.756 E7.74445
G1 X83.748 Y131.173 E7.77551
G1 X83.48 Y130.503 E7.78834
G1 X83.358 Y130.102 E7.79579
G1 X82.908 Y128.42 E7.82674
G1 X82.761 Y127.713 E7.83957
G1 X82.712 Y127.305 E7.84688
G1 X82.56 Y125.569 E7.87786
G1 X82.535 Y125.001 E7.88796
G1 X82.535 Y110 E8.15462
G1 X82.575 Y109.28 E8.16744
G1 X82.694 Y108.568 E8.18027
G1 X82.892 Y107.874 E8.1931
G1 X83.045 Y107.501 E8.20027
G1 X82.932 Y107.24 E8.20532
G1 X82.722 Y106.55 E8.21814
G1 X82.59 Y105.841 E8.23096
G1 X82.535 Y105 E8.24594
G1 X82.535 Y89.615 E8.51943
G1 X82.575 Y88.895 E8.53225
G1 X82.643 Y88.489 E8.53956
G1 X82.712 Y87.697 E8.55369
G1 X82.814 Y86.983 E8.56652
G1 X82.908 Y86.58 E8.57387
G1 X83.358 Y84.898 E8.60482
G1 X83.583 Y84.213 E8.61764
G1 X83.748 Y83.827 E8.6251
G1 X84.487 Y82.244 E8.65616
G1 X84.828 Y81.608 E8.66898
G1 X85.054 Y81.264 E8.6763
G1 X86.052 Y79.839 E8.70723
G1 X86.498 Y79.271 E8.72006
G1 X86.781 Y78.97 E8.72741
M204 S625
M205 X6 Y6
G0 F4285.7 X87.078 Y79.267
M204 S500
M205 X5 Y5
G1 F1200 X88.312 Y78.033 E8.75843
G1 X88.833 Y77.568 E8.77084
G1 X89.124 Y77.351 E8.77729
G1 X90.549 Y76.353 E8.80822
G1 X91.143 Y75.986 E8.82063
G1 X91.466 Y75.823 E8.82706
G1 X93.048 Y75.084 E8.8581
G1 X93.696 Y74.826 E8.8705
G1 X94.052 Y74.719 E8.87711
G1 X95.735 Y74.269 E8.90808
G1 X96.418 Y74.127 E8.92048
G1 X96.777 Y74.085 E8.9269
G1 X98.515 Y73.933 E8.95791
G1 X99.046 Y73.91 E8.96736
G1 X114.045 Y73.91 E9.23398
G1 X114.742 Y73.95 E9.24639
G1 X115.429 Y74.069 E9.25879
G1 X116.098 Y74.267 E9.27119
G1 X116.537 Y74.451 E9.27965
G1 X117.188 Y74.2 E9.29205
G1 X117.864 Y74.026 E9.30446
G1 X118.555 Y73.93 E9.31686
G1 X119.045 Y73.91 E9.32558
G1 X134.43 Y73.91 E9.59906
G1 X135.127 Y73.95 E9.61147
G1 X135.494 Y74.014 E9.6181
G1 X136.312 Y74.085 E9.63269
G1 X137.002 Y74.185 E9.64509
G1 X137.355 Y74.269 E9.65154
G1 X139.038 Y74.719 E9.6825
G1 X139.701 Y74.937 E9.69491
G1 X140.042 Y75.084 E9.70151
G1 X141.624 Y75.823 E9.73255
G1 X142.239 Y76.154 E9.74496
G1 X142.541 Y76.353 E9.75139
G1 X143.966 Y77.351 E9.78232
G1 X144.513 Y77.783 E9.79471
G1 X144.778 Y78.033 E9.80118
G1 X146.012 Y79.267 E9.83221
G1 X146.477 Y79.788 E9.84462
G1 X146.694 Y80.079 E9.85107
G1 X147.692 Y81.504 E9.882
G1 X148.059 Y82.098 E9.89441
G1 X148.222 Y82.421 E9.90084
G1 X148.96 Y84.001 E9.93184
G1 X149.218 Y84.649 E9.94424
G1 X149.325 Y85.003 E9.95081
G1 X149.776 Y86.688 E9.98182
G1 X149.917 Y87.372 E9.99423
G1 X149.96 Y87.732 E10.00068
G1 X150.112 Y89.468 E10.03165
G1 X150.135 Y89.999 E10.0411
G1 X150.135 Y105 E10.30776
G1 X150.095 Y105.697 E10.32017
G1 X149.976 Y106.384 E10.33256
G1 X149.778 Y107.053 E10.34497
G1 X149.594 Y107.492 E10.35343
G1 X149.845 Y108.143 E10.36583
G1 X150.019 Y108.819 E10.37824
G1 X150.115 Y109.51 E10.39064
G1 X150.135 Y110 E10.39936
G1 X150.135 Y125.385 E10.67284
G1 X150.095 Y126.082 E10.68525
G1 X150.031 Y126.449 E10.69187
G1 X149.96 Y127.267 E10.70647
G1 X149.86 Y127.957 E10.71886
G1 X149.776 Y128.311 E10.72533
G1 X149.326 Y129.993 E10.75628
G1 X149.107 Y130.656 E10.76869
G1 X148.961 Y130.995 E10.77525
G1 X148.222 Y132.578 E10.80631
G1 X147.891 Y133.192 E10.81871
G1 X147.692 Y133.496 E10.82517
G1 X146.694 Y134.921 E10.85609
G1 X146.262 Y135.468 E10.86848
G1 X146.012 Y135.733 E10.87496
G1 X144.778 Y136.967 E10.90598
G1 X144.257 Y137.432 E10.91839
G1 X143.966 Y137.649 E10.92485
G1 X142.541 Y138.647 E10.95577
G1 X141.947 Y139.014 E10.96818
G1 X141.624 Y139.177 E10.97461
G1 X140.042 Y139.916 E11.00565
G1 X139.394 Y140.174 E11.01805
G1 X139.038 Y140.281 E11.02466
G1 X137.355 Y140.731 E11.05563
G1 X136.672 Y140.873 E11.06803
G1 X136.313 Y140.915 E11.07445
G1 X134.575 Y141.067 E11.10546
G1 X134.044 Y141.09 E11.11491
G1 X119.045 Y141.09 E11.38153
G1 X118.348 Y141.05 E11.39394
G1 X117.661 Y140.931 E11.40634
G1 X116.992 Y140.733 E11.41874
G1 X116.553 Y140.549 E11.4272
G1 X115.902 Y140.8 E11.4396
G1 X115.226 Y140.974 E11.45201
G1 X114.535 Y141.07 E11.46441
G1 X114.045 Y141.09 E11.47313
G1 X98.66 Y141.09 E11.74661
G1 X97.963 Y141.05 E11.75902
G1 X97.596 Y140.986 E11.76565
G1 X96.778 Y140.915 E11.78024
G1 X96.088 Y140.815 E11.79264
G1 X95.735 Y140.731 E11.79909
G1 X94.052 Y140.281 E11.83005
G1 X93.389 Y140.063 E11.84246
G1 X93.048 Y139.916 E11.84906
G1 X91.466 Y139.177 E11.8801
G1 X90.851 Y138.846 E11.89251
G1 X90.549 Y138.647 E11.89894
G1 X89.124 Y137.649 E11.92987
G1 X88.577 Y137.217 E11.94226
G1 X88.312 Y136.967 E11.94874
G1 X87.078 Y135.733 E11.97976
G1 X86.613 Y135.212 E11.99217
G1 X86.396 Y134.921 E11.99862
G1 X85.398 Y133.496 E12.02955
G1 X85.031 Y132.902 E12.04196
G1 X84.868 Y132.578 E12.04841
G1 X84.129 Y130.995 E12.07946
G1 X83.87 Y130.347 E12.09187
G1 X83.764 Y129.993 E12.09844
G1 X83.314 Y128.311 E12.12939
G1 X83.172 Y127.628 E12.14179
G1 X83.13 Y127.268 E12.14823
G1 X82.978 Y125.532 E12.17921
G1 X82.955 Y125.001 E12.18865
G1 X82.955 Y110 E12.45531
G1 X82.995 Y109.303 E12.46772
G1 X83.114 Y108.616 E12.48012
G1 X83.312 Y107.947 E12.49252
G1 X83.496 Y107.508 E12.50098
G1 X83.245 Y106.857 E12.51338
G1 X83.071 Y106.181 E12.52579
G1 X82.975 Y105.49 E12.53819
G1 X82.955 Y105 E12.54691
G1 X82.955 Y89.615 E12.82039
G1 X82.995 Y88.918 E12.8328
G1 X83.059 Y88.551 E12.83942
G1 X83.13 Y87.733 E12.85402
G1 X83.23 Y87.043 E12.86641
G1 X83.314 Y86.689 E12.87288
G1 X83.764 Y85.007 E12.90383
G1 X83.983 Y84.344 E12.91624
G1 X84.129 Y84.005 E12.9228
G1 X84.868 Y82.422 E12.95386
G1 X85.199 Y81.808 E12.96626
G1 X85.398 Y81.504 E12.97272
G1 X86.396 Y80.079 E13.00364
G1 X86.828 Y79.532 E13.01603
G1 X87.078 Y79.267 E13.02251
M204 S625
M205 X6 Y6
G0 F4285.7 X87.375 Y79.564
M204 S500
M205 X5 Y5
G1 F1200 X88.609 Y78.33 E13.05353
G1 X89.365 Y77.695 E13.07108
G1 X90.79 Y76.697 E13.10201
G1 X91.643 Y76.204 E13.11952
G1 X93.225 Y75.465 E13.15056
G1 X94.16 Y75.124 E13.16825
G1 X95.843 Y74.674 E13.19922
G1 X96.814 Y74.504 E13.21674
G1 X98.552 Y74.352 E13.24775
G1 X99.046 Y74.33 E13.25654
G1 X114.045 Y74.33 E13.52316
G1 X114.717 Y74.37 E13.53513
G1 X115.38 Y74.489 E13.54711
G1 X116.023 Y74.686 E13.55906
G1 X116.55 Y74.919 E13.5693
G1 X116.927 Y74.74 E13.57672
G1 X117.565 Y74.526 E13.58868
G1 X118.225 Y74.39 E13.60066
G1 X119.045 Y74.33 E13.61528
G1 X134.43 Y74.33 E13.88876
G1 X135.102 Y74.37 E13.90073
G1 X135.434 Y74.43 E13.90672
G1 X136.275 Y74.503 E13.92173
G1 X137.247 Y74.674 E13.93927
G1 X138.93 Y75.124 E13.97024
G1 X139.865 Y75.465 E13.98793
G1 X141.447 Y76.204 E14.01897
G1 X142.3 Y76.697 E14.03648
G1 X143.725 Y77.695 E14.06741
G1 X144.481 Y78.33 E14.08496
G1 X145.715 Y79.564 E14.11598
G1 X146.35 Y80.32 E14.13353
G1 X147.348 Y81.745 E14.16446
G1 X147.841 Y82.598 E14.18197
G1 X148.579 Y84.178 E14.21297
G1 X148.919 Y85.112 E14.23064
G1 X149.37 Y86.797 E14.26164
G1 X149.541 Y87.768 E14.27917
G1 X149.693 Y89.504 E14.31015
G1 X149.715 Y89.999 E14.31896
G1 X149.715 Y105 E14.58561
G1 X149.675 Y105.672 E14.59758
G1 X149.556 Y106.335 E14.60955
G1 X149.359 Y106.978 E14.62151
G1 X149.126 Y107.505 E14.63175
G1 X149.305 Y107.882 E14.63917
G1 X149.519 Y108.52 E14.65113
G1 X149.655 Y109.18 E14.66311
G1 X149.715 Y110 E14.67772
G1 X149.715 Y125.385 E14.95121
G1 X149.675 Y126.057 E14.96317
G1 X149.615 Y126.389 E14.96917
G1 X149.542 Y127.23 E14.98418
G1 X149.37 Y128.202 E15.00172
G1 X148.92 Y129.884 E15.03268
G1 X148.581 Y130.817 E15.05032
G1 X147.842 Y132.4 E15.08138
